!!!!SEGMENT: pl-wn--mus-iii-101-528_wieniawski-henryk--1-re-mazurka.krn
!!!cenid: 18xx:3794
!!!COM: Wieniawski, Henryk
!!!COM-rismID: pe137176
!!!CDT: 1835/07/10-1880/03/31
!!!CNT:
!!!OTL: 1-re Mazurka
!!!PDT:
!!!AGN:
!!!SMS-siglum: PL-Wn
!!!SMS-shelfmark: Mus.III.101.528
!!!SMS-shelfwork: W
!!!SMS-variant:
!!!SMS-altvar:
!!!NIFC-rismSourceID:
!!!NIFC-rismChildID:
!!!NIFC-islandoraID: none
!!!URL-pdf-islandora:
!!!URL-scan: https://polona.pl/item/1-re-mazurka-pour-le-violon-avec-accompagnement-de-piano-edition-pour-piano,MTE0MTA2NzQ3/0 @EN{Scan on Polona} @PL{Skany w portalu Polona}
!!!IIIF: https://polona.pl/iiif/item/MTE0MTA2NzQ3/manifest.json
!!!ONB-nifc:
!!!OMD: Allegro moderato.
!!!AIN: 1 piano
!!!key: d
**kern	**kern	**fing	**dynam
*part1	*part1	*part1	*part1
*staff2	*staff1	*	*
*Ipiano	*Ipiano	*	*
*I"PIANO.	*I"PIANO.	*	*
*mI"Pianoforte	*mI"Pianoforte	*	*
*I'piano	*I'piano	*	*
*mI'pf	*mI'pf	*	*
*ICklav	*ICklav	*	*
*clefF4	*clefG2	*	*
*kcancel	*kcancel	*	*
*k[b-]	*k[b-]	*	*
*d:	*d:	*	*
*M3/4	*M3/4	*	*
=1	=1	=1	=1
*xywh-#3:173,286,3641,2222	*xywh-#3:173,286,3641,2222	*	*
!	!	!	!LO:DY:rj
8AA 8DD\	8d 8A< 8F</	.	p
8r	8r	.	.
!	!	!	!LO:DY:rj
2BB- 2DD\	2d 2G#X< 2F</	.	sf
=2	=2	=2	=2
8AA 8DD\	8d 8A< 8F</	.	.
8r	8r	.	.
!	!	!	!LO:DY:rj
2BB- 2DD\	2d 2G#X< 2F</	.	sf
=3	=3	=3	=3
8AA 8DD\	8d 8A< 8F</	.	.
8r	8r	.	.
!	!	!	!LO:DY:rj
2BB- 2DD\	2d 2G#X< 2F</	.	sf
=4	=4	=4	=4
8AA 8DD\	8d 8A< 8F</	.	.
8r	8r	.	.
!	!	!	!LO:DY:rj
2BB- 2DD\	2d 2G#X< 2F</	.	sf
=5||	=5||	=5||	=5||
!	!	!	!LO:DY:a:t=Mezzo forte e capriccioso.
8AA 8DD\	8d 8A< 8F</	.	mf
8r	8r	.	.
2G#X 2F 2BB-\	(4.dd 4.d/	.	sf
.	8b-\	.	.
!!LO:LB:g=original
=6	=6	=6	=6
*xywh-#3:208,2472,3471,816	*xywh-#3:208,2472,3471,816	*	*
4A 4F 4AA'\	8.a/L)	.	.
.	16a/Jk	.	.
4AA 4DD'/	4f 4d/	.	.
4AA 4DD'/	4a 4f 4A/	.	.
=7	=7	=7	=7
8AA 8DD\	8d 8F</	.	.
8r	8r	.	.
.	(8qd/	.	.
!	!	!	!LO:DY:rj
2G#X 2F 2BB-\	(8eeL 8d'\)	.	sf
.	8dd'\	.	.
.	8cc'\	.	.
.	8b-'\J	.	.
=8	=8	=8	=8
!	!LO:MO:mod=8.a'/L)	!	!
4A 4F 4AA'\	8.a'>/L)	.	.
.	16a/Jk	.	.
!	!LO:MO:mod=4f 4d'	!	!
4AA 4DD'/	4f 4d/	.	.
!	!LO:MO:mod=4a 4f 4A'	!	!
4AA 4DD'/	4a 4f 4A/	.	.
=9	=9	=9	=9
.	8qB-/	.	.
!	!	!	!LO:MO:mod=!null:null
!	!	!	!LO:HP:a
8C 8CC/	8cc 8g 8e/	.	<
8r	8r	.	.
2F 2C 2FF^/	2a 2f 2c 2A^/	.	.
=10	=10	=10	=10
.	8qc#X/	.	.
8A 8AA\	8ee 8a 8g\	.	.
8r	8r	.	[
(<2A 2D^\	(2ff 2dd 2a 2f^\	.	.
!!LO:LB:g=original
=11	=11	=11	=11
*xywh-#3:201,3260,3478,773	*xywh-#3:201,3260,3478,773	*	*
4e-X 4B- 4G\	4ee-X 4b- 4g\	.	p
2c#X 2A\	2cc#X 2g 2en/	.	.
=12	=12	=12	=12
4d 4D\)	4dd 4f/)	.	.
4D\	4r	.	.
4r	4r	.	.
=13	=13	=13	=13
8AA 8DD\	8d 8F</	.	.
8r	8r	.	.
2G#X 2F 2BB-\	(4.dd 4.d/	.	sf
.	8b-\	.	.
=14	=14	=14	=14
4A 4F 4AA'\	8.a/L)	.	.
.	16a/Jk	.	.
4AA 4DD'/	4f 4d/	.	.
4AA 4DD'/	4a 4f 4A/	.	.
=15	=15	=15	=15
8AA 8DD\	8d 8F</	.	.
8r	8r	.	.
.	(8qd/	.	.
!	!	!	!LO:DY:rj
2G#X 2F 2BB-\	(8eeL 8d'\)	.	sf
.	8dd'\	.	.
.	8cc'\	.	.
.	8b-'\J	.	.
!!LO:LB:g=original
=16	=16	=16	=16
*xywh-#3:201,4006,3648,1036	*xywh-#3:201,4006,3648,1036	*	*
!	!LO:MO:mod=8.a'/L)	!	!
4A 4F 4AA'\	8.a'>/L)	.	.
.	16a/Jk	.	.
!	!LO:MO:mod=4f 4d'	!	!
4AA 4DD'/	4f 4d/	.	.
!	!LO:MO:mod=4a 4f 4A'	!	!
4AA 4DD'/	4a 4f 4A/	.	.
=17	=17	=17	=17
.	8qB-/	.	.
!	!	!	!LO:MO:mod=!null:null
!	!	!	!LO:HP:a
8C 8CC/	8cc 8g 8e/	.	<
8r	8r	.	.
2F 2C 2FF^/	2a 2f 2c 2A^>/	.	.
=18	=18	=18	=18
.	8qc#X/	.	.
!LO:MO:mod=!null:null	!	!	!
!LO:N:vis=4	!	!	!
8A 8AA\	8ee 8a 8g\	.	.
8r	8r	.	[
(<2d 2A 2D^<\	(2ff 2dd 2a 2f^\	.	.
=19	=19	=19	=19
!	!	!	!LO:DY:rj
4e-X 4B- 4G\	4ee-X 4b- 4g\	.	p
2c#X 2A\	2cc#X 2g 2en/	.	.
=20	=20	=20	=20
4d 4D\)	4dd 4f/)	.	.
4D\	4r	.	.
4r	4r	.	.
!!LO:PB:g=original
=21||	=21||	=21||	=21||
!!!OMD: Vivo.
*	*^	*	*
*xywh-#4:388,445,3478,993	*xywh-#4:388,445,3478,993	*xywh-#4:388,445,3478,993	*	*
8c 8F\	8f/	8ryy	.	.
8r	8r	8ryy	.	.
4c#X 4F\	(4.ff/	2a 2f\	.	sf
4c# 4F\	.	.	.	.
.	8ee/	.	.	.
*	*v	*v	*	*
=22	=22	=22	=22
4d 4F\	8.ddL 8.b-\)	.	.
.	16ddJk 16b-\	.	.
4d 4F\	4f/	.	.
4d 4F^\	4dd 4b-^\	.	.
=23	=23	=23	=23
4e 4F\	8.g\L	.	<
.	16b-\K	.	.
4e 4F\	8dd\	.	.
.	8g\	.	.
4e 4F\	8dd 8b-\	.	.
.	8g\J	.	.
=24	=24	=24	=24
4f 4F\	8.ddL 8.b-\	.	.
.	16ddJk 16b-\	.	[
4f 4F\	4cc 4a\	.	.
4f 4F\	4a/	.	.
=25	=25	=25	=25
*	*^	*	*
8c 8F\	8f/	8ryy	.	.
8r	8r	8ryy	.	.
4c#X 4F\	(4.ff/	2a 2f\	.	sf
4c# 4F\	.	.	.	.
.	8ee/	.	.	.
*	*v	*v	*	*
=26	=26	=26	=26
4d 4F\	8.ddL 8.b-\)	.	.
.	16ddJk 16b-\	.	.
4d 4F\	4f/	.	.
4d 4F^\	4dd 4b-^\	.	.
!!LO:LB:g=original
=27	=27	=27	=27
*xywh-#4:388,1432,3414,660	*xywh-#4:388,1432,3414,660	*	*
4e 4F\	8.g\L	.	<
.	16b-\K	.	.
4e 4F\	8dd\	.	.
.	8g\	.	.
4e 4F\	8dd 8b-\	.	.
.	8g\J	.	.
=28	=28	=28	=28
4f 4F\	8.ddL 8.b-\	.	.
.	16ddJk 16b-\	.	[
4f 4F\	4cc 4a\	.	.
4f 4F\	4a/	.	.
=29	=29	=29	=29
*	*^	*	*
8c#X 8E\	8a 8e/	8ryy	.	.
8r	8r	8ryy	.	.
2d 2E\	4.bn/	2g#X 2e\	.	sf
.	8cc#X/	.	.	.
*	*v	*v	*	*
=30	=30	=30	=30
4c#X 4A\	8aL 8e/	.	.
.	8cc#X/J	.	.
4c# 4A\	4ee 4a 4e/	.	.
4c# 4A\	4ee 4a 4e/	.	.
=31	=31	=31	=31
*	*^	*	*
8c#X 8E\	8a 8e/	8ryy	.	.
8r	8r	8ryy	.	.
2d 2E\	4.bn/	2g#X 2e\	.	sf
.	8cc#X/	.	.	.
*	*v	*v	*	*
=32	=32	=32	=32
4c#X 4A\	8aL 8e/	.	.
.	8f#X/J	.	.
4c# 4A\	4e/	.	.
4c# 4A\	4e/	.	.
!!LO:LB:g=original
=33	=33	=33	=33
*	*^	*	*
*xywh-#4:402,2121,3549,660	*xywh-#4:402,2121,3549,660	*xywh-#4:402,2121,3549,660	*	*
8c#X 8E\	8a 8e/	4ryy	.	.
8r	8r	.	.	.
2d 2E\	4.bn/	2g#X 2e\	.	sf
.	8cc#X/	.	.	.
*	*v	*v	*	*
=34	=34	=34	=34
4c#X 4A\	8.aL 8.e/	.	.
.	16cc#X/Jk	.	.
4r	4ee\	.	.
4r	4ee\	.	.
=35	=35	=35	=35
!	!LO:TX:b:i:t=ral_len_tan_do.:dur=9q:ext=ud:problem:text with extention lines:mod=	!	!
!!LO:TX:B:t=:mod=rallentando.
8.A\L	2.r	.	.
16c#X\Jk	.	.	.
4e\	.	.	.
4e\	.	.	.
=36	=36	=36	=36
2.r	8.a\L	.	.
.	16cc#X\Jk	.	.
.	4ff\	.	.
.	4ff\	.	.
=37	=37	=37	=37
8.A\L	2.r	.	.
16c#X\Jk	.	.	.
4f\	.	.	.
4f\	.	.	.
!!LO:LB:g=original
=38	=38	=38	=38
!!!OMD: a tempo.
*xywh-#4:395,2767,3556,766	*xywh-#4:395,2767,3556,766	*	*
4FF'/	8f 8A/	.	.
.	8r	.	.
4a 4f 4cn'\	(4.ff^\	.	.
4a 4f 4c#X'\	.	.	.
.	8ee\	.	.
=39	=39	=39	=39
4BB-'/	8dd\L)	.	.
.	16r	.	.
.	16dd\Jk	.	.
4g 4d'\	4b-\	.	.
4f 4d 4B-'^\	4dd 4b- 4g^\	.	.
=40	=40	=40	=40
4CC'/	8eL 8B-/	.	.
.	16r	.	.
.	(<16g/Jk	.	.
(4c 4B-\	8ddL 8e/	.	.
.	8g/	.	.
4C/)	8dd 8e/	.	.
.	8g/J	.	.
=41	=41	=41	=41
4A: 4FF':\	8dd:L 8a: 8f:\)	.	.
.	16r	.	.
.	16dd\Jk	.	.
(4c\	4cc\	.	.
4C/)	(4a 4f/	.	.
=42	=42	=42	=42
4FF/	8f 8A/)	.	.
.	8r	.	.
4a 4f 4c\	(4.ff^\	.	.
4a 4f 4c#X\	.	.	.
.	8ee\	.	.
!!LO:LB:g=original
=43	=43	=43	=43
*xywh-#4:395,3533,3528,674	*xywh-#4:395,3533,3528,674	*	*
4BB-/	8gg:L 8ee:\)	.	.
.	16r	.	.
.	16ffJk 16dd\	.	.
4g 4d\	4ee 4cc\	.	.
4f 4G\	4dd 4b-\	.	.
=44	=44	=44	=44
4C/	8eL 8B-/	.	.
.	16r	.	.
.	(<16g/Jk	.	.
(4c 4B-\	8ddL 8e/	.	.
.	8g/	.	.
4C/)	8dd 8e/	.	.
.	8g/J	.	.
=45	=45	=45	=45
*^	*	*	*
4r	4A: 4FF:\	8dd:L 8a: 8f:\)	.	.
.	.	16r	.	.
.	.	16dd\Jk	.	.
2c/	4r	4cc\	.	.
.	4F\	4a 4d#X/	.	.
*v	*v	*	*	*
=46	=46	=46	=46
*	*^	*	*
8c#X 8E\	8a 8e/	8ryy	.	.
8r	8r	8ryy	.	.
2d 2E\	4.bn/	2g#X 2e\	.	sf
.	8cc#X/	.	.	.
*	*v	*v	*	*
=47	=47	=47	=47
4c#X 4A\	8aL 8e/	.	.
.	8cc#X/J	.	.
4c# 4A\	4ee 4a 4e/	.	.
4c# 4A\	4ee 4a 4e/	.	.
!!LO:LB:g=original
=48	=48	=48	=48
*	*^	*	*
*xywh-#4:409,4172,3563,851	*xywh-#4:409,4172,3563,851	*xywh-#4:409,4172,3563,851	*	*
8c#X 8E\	8a 8e/	8ryy	.	.
8r	8r	8ryy	.	.
2d 2E\	4.bn/	2g#X 2e\	.	sf
.	8cc#X/	.	.	.
*	*v	*v	*	*
=49	=49	=49	=49
4c#X 4A\	8aL 8e/	.	.
.	8f#X/J	.	.
4c# 4A\	4e/	.	.
4c# 4A\	4e/	.	.
*clefG2	*	*	*
=50	=50	=50	=50
*	*^	*	*
8cc#X 8e/	8aa 8ee\	8ryy	.	p
8r	8r	8ryy	.	.
2dd 2e/	4.bbn/	2gg#X 2ee\	.	.
.	8ccc#X/	.	.	.
*	*v	*v	*	*
=51	=51	=51	=51
!	!LO:TX:b:i:t=ral_len_tan_do.:dur=10q:ext=ud:problem:text with extention lines:mod=	!	!
!!LO:TX:B:t=:mod=rallentando.
4cc#X 4a\	8.aaL 8.ee\	.	.
.	16ccc#X\Jk	.	.
4cc# 4a\	4eee 4aa 4ee\	.	.
4cc# 4a\	4eee 4aa 4ee\	.	.
=52	=52	=52	=52
8.A/L	2.r	.	.
16c#X/Jk	.	.	.
4e/	.	.	.
4e/	.	.	.
!!LO:PB:g=original
=53	=53	=53	=53
*xywh-#5:328,502,3350,944	*xywh-#5:328,502,3350,944	*	*
4cc#X 4a\	8.aaL 8.ff\	.	.
.	16ccc#X\Jk	.	.
4cc# 4a\	4fff 4aa 4ff\	.	.
4cc# 4a\	4fff 4aa 4ff\	.	.
=54	=54	=54	=54
8.A/L	4r	.	.
16c#X/Jk	.	.	.
4.f;/	4r;	.	.
.	8r	.	.
8r	(8eL/	.	.
*clefF4	*	*	*
=55||	=55||	=55||	=55||
!!!OMD: Tempo I°.
!!!OMD-mod: Tempo I
8AA 8DD\	8d 8F<J/)	.	.
8r	8r	.	.
!	!LO:TX:a:i:t=ten.:mod=tenuto	!	!
!	!LO:N:n=2:vis=4	!	!
2G#X 2F 2BB-\	(4.dd 4.d/	.	pp
.	8b-\	.	.
=56	=56	=56	=56
4A 4F 4AA'\	8.a/L)	.	.
.	16a/Jk	.	.
4AA 4DD'/	4f 4d/	.	.
4AA 4DD'/	4a 4f 4A/	.	.
=57	=57	=57	=57
8AA 8DD\	8d 8F</	.	.
8r	8r	.	.
!	!LO:TX:a:i:t=ten.:mod=tenuto	!	!
.	(8qd/	.	.
2G#X 2F 2BB-\	(8eeL 8d'\)	.	.
.	8dd'\	.	.
.	8cc'\	.	.
.	8b-'\J	.	.
=58	=58	=58	=58
4A 4F 4AA'\	8.a'>/L)	.	.
.	16a/Jk	.	.
4AA 4DD'/	4f 4d/	.	.
4AA 4DD'/	4a 4f 4A/	.	.
!!LO:LB:g=original
=59	=59	=59	=59
*xywh-#5:307,1396,3336,667	*xywh-#5:307,1396,3336,667	*	*
.	8qB-/	.	.
!	!	!	!LO:MO:mod=!null:null
!	!	!	!LO:HP:a
8C 8CC/	8cc 8g 8e/	.	<
8r	8r	.	.
2F 2C 2FF^/	2a 2f 2c 2A^>/	.	.
=60	=60	=60	=60
.	8qc#X/	.	.
8A 8AA\	8ee 8a 8g\	.	.
8r	8r	.	[
(<2d 2A 2D^\	(2ff 2dd 2a 2f^\	.	.
=61	=61	=61	=61
4e-X 4B- 4G\	4ee-X 4b- 4g\	.	p
2c#X 2A\	2cc#X 2g 2en/	.	.
=62	=62	=62	=62
4d 4D\)	4dd 4f/)	.	.
4D\	4r	.	.
4r	4r	.	.
=63||	=63||	=63||	=63||
!!!key: G
*k[f#]	*k[f#]	*	*
!	!LO:TX:b:Bi:t=cre_scen_do_molto_:problem:dynamics with extention lines:mod=	!	!
!	!LO:TX:a:i:t=poco_a_poco_stringendo.:dur=10q:ext=ud:problem:text with extention lines:mod=	!	!LO:HP:t=crescendo molto
!!LO:TX:B:t=:mod=poco a poco stringendo.
(8qC#X/	(8qc#X/	.	.
4D\)	4d/)	.	<
(8qC#/	(8qc#/	.	.
4D\)	4d/)	.	.
(8qC#/	(8qc#/	.	.
4D\)	4d/)	.	.
=64	=64	=64	=64
(8qC#X/	(8qc#X/	.	.
4D\)	4d/)	.	.
(8qC#/	(8qc#/	.	.
4D\)	4d/)	.	.
(8qC#/	(8qc#/	.	.
4D\)	4d/)	.	.
!!LO:LB:g=original
=65	=65	=65	=65
*xywh-#5:307,2050,3322,752	*xywh-#5:307,2050,3322,752	*	*
(8qC#X/	(8qc#X/	.	.
4D\)	4d/)	.	.
(8qC#/	(8qc#/	.	.
4D\)	4d/)	.	.
(8qC#/	(8qc#/	.	.
4D\)	4d	.	.
=66	=66	=66	=66
8.DL 8.DD/	2.r	.	.
16EJk 16EE/	.	.	.
8DL 8DD/	.	.	.
8Cn 8CCn/	.	.	.
8BB 8BBB/	.	.	.
8AAJ 8AAA/	.	.	[[
=67||	=67||	=67||	=67||
!!!OMD: Allegro vivace.
8GG 8GGG/	8gg 8dd 8b 8g\	.	ff
8r	8r	.	.
2d 2B 2G 2D\	(4.gg 4.dd 4.b 4.g\	.	.
.	8ff#\	.	.
=68	=68	=68	=68
4GG/	8.ee\L)	.	.
.	16ee\Jk	.	.
.	8qff#/	.	.
4d 4c 4A 4D\	4ee 4cc 4f#\	.	.
4d 4c 4A 4D\	4dd 4cc 4f#\	.	.
=69	=69	=69	=69
8GG/	8ggL 8dd 8b 8g\	.	.
8r	16r	.	.
.	16gg\Jk	.	.
2d 2B 2G 2D\	8ggL 8dd\	.	.
.	(8aa\	.	.
.	8gg\	.	.
.	8ff#\J	.	.
!!LO:LB:g=original
=70	=70	=70	=70
*xywh-#5:299,2738,3379,709	*xywh-#5:299,2738,3379,709	*	*
4GG/	8.ee\L)	.	.
.	16ee\Jk	.	.
.	8qff#/	.	.
4d 4c 4A 4D\	4ee 4cc 4f#\	.	.
4d 4c 4A 4D\	4dd 4cc 4f#\	.	.
=71	=71	=71	=71
8GG/	8gg 8dd 8b 8g\	.	.
8r	8r	.	.
2d 2B 2G 2D\	2bb 2gg 2dd 2b\	.	.
=72	=72	=72	=72
*	*^	*	*
4AA 4AAA/	8aa/L	8a\	.	.
.	16rgg	8r	.	.
.	16bb/Jk	.	.	.
4c#X 4A 4G\	8aa/L	[2a\	.	.
.	8gg/	.	.	.
4c# 4A 4G\	8ee/	.	.	.
.	8ff#/J	.	.	.
=73	=73	=73	=73	=73
4D 4DD/	8dd/L	4a\]	.	.
.	8ff#/J	.	.	.
!	!LO:MO:mod=!null:null	!	!	!
!	!LO:N:vis=8	!	!	!
4d 4A 4F#\	(16bb/L	4a\	.	.
!	!LO:MO:mod=!null:null	!	!	!
!	!LO:N:vis=16.	!	!	!
.	8.aa/Jk)	.	.	.
4d 4A 4F#\	(16bb/KL	4a\	.	.
.	8.aa/J)	.	.	.
=74	=74	=74	=74	=74
4AA/	8aa/L	8a\	.	.
.	16rgg	8r	.	.
.	16bb/Jk	.	.	.
4c#X 4A 4G\	8aa/L	2a\	.	.
.	8gg/	.	.	.
4c# 4A 4G\	8ee/	.	.	.
.	8ff#/J	.	.	.
!!LO:LB:g=original
=75	=75	=75	=75	=75
*^	*	*	*	*
*xywh-#5:307,3441,3471,695	*xywh-#5:307,3441,3471,695	*xywh-#5:307,3441,3471,695	*xywh-#5:307,3441,3471,695	*	*
4d 4F# 4D\	4ryy	8dd/	8dd\	.	.
.	.	(8dd\L	8ryy	.	.
(4e/	2d\	8ee 8cc#X\	2ryy	.	.
.	.	8ff#\	.	.	.
4f#/)	.	8bb 8ccn\	.	.	.
.	.	8aa\J)	.	.	.
*v	*v	*	*	*	*
*	*v	*v	*	*
=76	=76	=76	=76
8GG 8GGG/	8gg 8dd 8b 8g\	.	.
8r	8r	.	.
!	!LO:MO:mod=!null:null	!	!
!	!LO:N:n=4:vis=4	!	!
!	!LO:MO:mod=!null:null	!	!
!	!LO:N:n=3:vis=4	!	!
!	!LO:MO:mod=!null:null	!	!
!	!LO:N:n=2:vis=4	!	!
2d 2B 2G 2D\	(4.gg 4.dd 4.b 4.g\	.	.
.	8ff#\	.	.
=77	=77	=77	=77
4GG/	8.ee\L)	.	.
.	16ee\Jk	.	.
.	8qff#/	.	.
4d 4c 4A 4D\	4ee 4cc 4f#\	.	.
4d 4c 4A 4D\	4dd 4cc 4f#\	.	.
=78	=78	=78	=78
8GG/	8ggL 8dd 8b 8g\	.	.
8r	16r	.	.
.	16ff#\Jk	.	.
2d 2B 2G 2D\	8ggL 8dd\	.	.
.	(8aa\	.	.
.	8gg\	.	.
.	8ff#\J	.	.
=79	=79	=79	=79
4GG/	8.ee\L)	.	.
.	16ee\Jk	.	.
.	8qff#/	.	.
4d 4c 4A 4D\	4ee 4cc 4f#\	.	.
4d 4c 4A 4D\	4dd 4cc 4f#\	.	.
!!LO:LB:g=original
=80	=80	=80	=80
*xywh-#5:356,4101,3322,866	*xywh-#5:356,4101,3322,866	*	*
8GG/	8gg 8dd 8b 8g\	.	.
8r	8r	.	.
2d 2B 2G 2D\	2bb 2gg 2dd 2b\	.	.
=81	=81	=81	=81
*	*^	*	*
4AA 4AAA/	8aa/L	8a\	.	.
.	16rgg	8r	.	.
.	16bb/Jk	.	.	.
4c#X 4A 4G\	8aa/L	[2a\	.	.
.	8gg/	.	.	.
4c# 4A 4G\	8ee/	.	.	.
.	8ff#/J	.	.	.
=82	=82	=82	=82	=82
4D 4DD/	8dd/L	4a\]	.	.
.	8ff#/J	.	.	.
4d 4A 4F#\	(16bb/KL	4a\	.	.
.	8.aa/J)	.	.	.
4d 4A 4F#\	(16bb/KL	4a\	.	.
.	8.aa/J)	.	.	.
=83	=83	=83	=83	=83
4AA/	8aa/L	8a\	.	.
.	16rgg	8r	.	.
.	16bb/Jk	.	.	.
4c#X 4A 4G\	8aa/L	2a\	.	.
.	8gg/	.	.	.
4c# 4A 4G\	8ee/	.	.	.
.	8ff#/J	.	.	.
=84	=84	=84	=84	=84
4d 4A 4F# 4D\	8dd/	8dd\	.	.
.	8r	8ryy	.	.
4r	(4.dd 4.d/	2ryy	.	.
4r	.	.	.	.
.	8dd#X 8d#X/	.	.	.
*	*v	*v	*	*
!!LO:PB:g=original
=85||	=85||	=85||	=85||
*xywh-#6:423,502,3570,929	*xywh-#6:423,502,3570,929	*	*
8AA 8AAA/	8ee 8e/)	.	.
8r	8r	.	.
!	!LO:MO:mod=!null:null	!	!
!	!LO:N:n=4:vis=4	!	!
!	!LO:MO:mod=!null:null	!	!
!	!LO:N:n=3:vis=4	!	!
!	!LO:MO:mod=!null:null	!	!
!	!LO:N:n=2:vis=4	!	!
2e 2c 2A 2E\	(4.ccc 4.aa 4.ee 4.cc\	.	.
.	8aa\	.	.
=86	=86	=86	=86
4DD/	8.ff#\L)	.	.
.	16dd\Jk	.	.
4d 4A 4F# 4D`\	4ff# 4cc 4a`\	.	.
4d 4B 4G`\	4gg 4dd 4b 4g`\	.	.
=87	=87	=87	=87
8AA/	8ee 8cc 8a 8e/	.	.
8r	8r	.	.
!	!LO:MO:mod=!null:null	!	!
!	!LO:N:n=4:vis=4	!	!
!	!LO:MO:mod=!null:null	!	!
!	!LO:N:n=3:vis=4	!	!
!	!	!LO:MO:mod=!null:null	!
!	!LO:N:n=2:vis=4	!	!
2e 2c 2A 2E\	4.ccc 4.aa 4.ee 4.cc\	.	.
.	(8aa\	.	.
=88	=88	=88	=88
4DD/	8.ff#\L	.	.
.	16dd\Jk)	.	.
4d 4A 4F# 4D`\	4ff# 4cc 4a`\	.	.
4d 4B 4G`\	4gg 4dd 4b 4g`\	.	sf
=89	=89	=89	=89
4d 4A 4F# 4D`\	8.ff#L 8.cc 8.a`\	.	.
.	16dd\Jk	.	.
4d 4A 4F# 4D`\	4ff# 4cc 4a`\	.	.
!	!	!	!LO:DY:rj
4d 4B 4G`\	4gg 4dd 4b 4g`\	.	sf
=90	=90	=90	=90
4d 4A 4F# 4D`\	8.ff#L 8.cc 8.a`\	.	.
.	16dd\Jk	.	.
4d 4A 4F# 4D`\	4ff# 4cc 4a`\	.	.
!	!	!	!LO:DY:rj
4d 4B 4G`\	4gg 4dd 4b 4g`\	.	sf
!!LO:LB:g=original
=91	=91	=91	=91
*	*^	*	*
*xywh-#6:409,1375,3514,823	*xywh-#6:409,1375,3514,823	*xywh-#6:409,1375,3514,823	*	*
!	!	!LO:TX:Bi:b:t=cre_scen_do._:problem:dynamics with extention lines:mod=	!	!LO:HP:t=crescendo.
4DD 4DDD/	(16eee/KL	4dd\	.	<
.	8.ddd/J)	.	.	.
4d 4F# 4D\	(16eee/KL	4dd\	.	.
.	8.ddd/J)	.	.	.
4d 4F# 4D\	(16eee/KL	4dd\	.	.
.	8.ddd/J)	.	.	.
=92	=92	=92	=92	=92
4d 4G 4E 4D\	(16eee/KL	4dd\	.	.
.	8.ddd/J)	.	.	.
4d 4G 4E 4D\	(16eee/KL	4dd\	.	.
.	8.ddd/J)	.	.	.
4d 4G#X 4E#X 4D\	(16eee/KL	4dd\	.	.
.	8.ddd/J)	.	.	.
=93	=93	=93	=93	=93
4d 4A 4F# 4D\	(16eee/KL	4dd\	.	.
.	8.ddd/J)	.	.	.
4d 4B-X 4Gn 4D\	(16eee/KL	4dd\	.	.
.	8.ddd/J)	.	.	.
4d 4Bn 4G#X 4D\	(16eee/KL	4dd\	.	.
.	8.ddd/J)	.	.	[[
=94	=94	=94	=94	=94
8d 8c 8A 8D\	(16eee/LL	8dd\	.	.
.	16ddd/JJ)	.	.	.
16ELL 16EE/	16r	8ryy	.	ff
16r	16eeLL 16e/	.	.	.
16D 16DD/	16r	2ryy	.	.
16r	16dd 16d/	.	.	.
16C 16CC/	16r	.	.	.
16r	16cc 16c/	.	.	.
16BB 16BBB/	16r	.	.	.
16r	16b 16B/	.	.	.
16AAJJ 16AAA/	16r	.	.	.
16r	16aJJ 16A/	.	.	.
*	*v	*v	*	*
!!LO:LB:g=original
=95	=95	=95	=95
*xywh-#6:402,2170,3457,660	*xywh-#6:402,2170,3457,660	*	*
8GG 8GGG/	8g 8G/	.	.
8r	8r	.	.
!	!LO:MO:mod=!null:null	!	!
!	!LO:N:n=4:vis=4	!	!
!	!LO:MO:mod=!null:null	!	!
!	!LO:N:n=3:vis=4	!	!
!	!LO:MO:mod=!null:null	!	!
!	!LO:N:n=2:vis=4	!	!
2d 2B 2G 2D\	(4.gg 4.dd 4.b 4.g\	.	.
.	8ff#\	.	.
=96	=96	=96	=96
4GG/	8.ee\L)	.	.
.	16ee\Jk	.	.
.	8qff#/	.	.
4d 4c 4A 4D\	4ee 4cc 4f#\	.	.
4d 4c 4A 4D\	4dd 4cc 4f#\	.	.
=97	=97	=97	=97
8GG/	8ggL 8dd 8b 8g\	.	.
8r	16r	.	.
.	16ff#\Jk	.	.
2d 2B 2G 2D\	8ggL 8dd\	.	.
.	(8aa\	.	.
.	8gg\	.	.
.	8ff#\J	.	.
=98	=98	=98	=98
4GG/	8.ee\L)	.	.
.	16ee\Jk	.	.
.	8qff#/	.	.
4d 4c 4A 4D\	4ee 4cc 4f#\	.	.
4d 4c 4A 4D\	4dd 4cc 4f#\	.	.
=99	=99	=99	=99
8GG/	8gg 8dd 8b 8g\	.	.
8r	8r	.	.
2d 2B 2G 2D\	2bb 2gg 2dd 2b\	.	.
!!LO:LB:g=original
=100	=100	=100	=100
*	*^	*	*
*xywh-#6:402,2788,3343,709	*xywh-#6:402,2788,3343,709	*xywh-#6:402,2788,3343,709	*	*
4AA 4AAA/	8aa/L	8a\	.	.
.	16rgg	8r	.	.
.	16bb/Jk	.	.	.
4c#X 4A 4G\	8aa/L	[2a\	.	.
.	8gg/	.	.	.
4c# 4A 4G\	8ee/	.	.	.
.	8ff#/J	.	.	.
=101	=101	=101	=101	=101
4D 4DD/	8dd/L	4a\]	.	.
.	8ff#/J	.	.	.
4d 4A 4F#\	(16bb/KL	4a\	.	.
.	8.aa/J)	.	.	.
4d 4A 4F#\	(16bb/KL	4a\	.	.
.	8.aa/J)	.	.	.
=102	=102	=102	=102	=102
4AA/	8aa/L	8a\	.	.
.	16rgg	8r	.	.
.	16bb/Jk	.	.	.
4c#X 4A 4G\	8aa/L	2a\	.	.
.	8gg/	.	.	.
4c# 4A 4G\	8ee/	.	.	.
.	8ff#/J	.	.	.
=103	=103	=103	=103	=103
8d 8A 8F# 8D\	8dd/	8dd\	.	.
16DLL 16DD/	16r	8ryy	.	<
16r	16dddLL 16dd\	.	.	.
16C#X 16CC#X/	16r	2ryy	.	.
16r	16eee-X 16ee-X\	.	.	.
16Cn 16CCn/	16r	.	.	.
16r	16eeen 16een\	.	.	.
16BB 16BBB/	16r	.	.	.
16r	16fffn 16ffn\	.	.	.
16AAJJ 16AAA/	16r	.	.	.
16r	16fff#XJJ 16ff#X\	.	.	[
*	*v	*v	*	*
!!LO:LB:g=original
=104	=104	=104	=104
*xywh-#6:395,3469,3336,731	*xywh-#6:395,3469,3336,731	*	*
!	!LO:TX:b:i:t=tutta la forza.:mod=	!	!
!!LO:TX:B:t=:mod=tutta la forza.
8GG 8GGG/	8ggg 8gg\	.	.
8r	8r	.	.
!	!LO:MO:mod=!null:null	!	!
!	!LO:N:n=3:vis=4	!	!
!	!LO:MO:mod=!null:null	!	!
!	!LO:N:n=2:vis=4	!	!
2d 2B 2G 2D\	4.ggg 4.ddd 4.bb 4.gg\	.	.
.	8fff# 8ff#\	.	.
=105	=105	=105	=105
4GG/	8.eeeL 8.ee\	.	.
.	16ee\Jk	2	.
.	8qccc 8qff#/	3 5	.
4d 4c 4A 4F# 4D\	4ee\	.	.
4d 4c 4A 4F# 4D\	4ddd 4ccc 4ff# 4dd\	.	.
=106	=106	=106	=106
8GG/	8gggL 8ddd 8bb 8gg\	.	.
8r	16r	.	.
.	16fff#Jk 16ff#\	.	.
2d 2B 2G 2D\	8gggL 8gg\	.	.
.	8aaa 8aa\	.	.
.	8ggg 8gg\	.	.
.	8fff#J 8ff#\	.	.
=107	=107	=107	=107
4GG/	8.eeeL 8.ee\	.	.
.	16ee\Jk	.	.
.	8qccc 8qff#/	.	.
4d 4c 4A 4D\	4ee\	.	.
4d 4c 4A 4D\	4ddd 4ccc 4ff# 4dd\	.	.
=108	=108	=108	=108
4B: 4D: 4GG:\	4ggg 4ddd 4bb 4gg\	.	.
4g 4d 4B 4G\	4bbb 4ggg 4ddd 4bb\	.	.
4r	4r	.	.
=109	=109	=109	=109
2.r	2.r	.	.
!!LO:LB:g=original
=110	=110	=110	=110
*xywh-#6:395,4179,3464,887	*xywh-#6:395,4179,3464,887	*	*
!	!LO:TX:a:i:t=molto capriccioso.:mod=	!	!
!!LO:TX:B:t=:mod=molto capriccioso.
8qD/	8qd/	.	.
(8.G\L	(8.g\L	.	.
16B-X\Jk	16b-X\Jk	.	.
4d^\	4dd^\	.	.
8.c#X\L	8.cc#X\L	.	.
16B-\Jk)	16b-\Jk)	.	.
=111	=111	=111	=111
(8.G\L	(8.g\L	.	.
16B-X\Jk	16b-X\Jk	.	.
4d^\	4dd^\	.	.
8.c#X\L	8.cc#X\L	.	.
16B-\Jk)	16b-\Jk)	.	.
=112	=112	=112	=112
(16G\LL	(16g\LL	.	.
16d\	16dd\	.	.
!	!LO:TX:b:Bi:t=dim._:problem:dynamics with extention lines:mod=	!	!LO:HP:t=dim.
16c#X\	16cc#X\	.	>
16B-X\JJ)	16b-X\JJ)	.	.
(16G\LL	(16g\LL	.	.
16d\	16dd\	.	.
16c#\	16cc#\	.	.
16B-\JJ)	16b-\JJ)	.	.
(16G\LL	(16g\LL	.	.
16d\	16dd\	.	.
16c#\	16cc#\	.	.
16B-\JJ)	16b-\JJ)	.	]]
=113	=113	=113	=113
*^	*^	*	*
!	!	!LO:TX:a:i:t=rall.:dur=6q:ext=ud:problem:text with extention lines:mod=	!	!	!
!!LO:TX:B:t=:mod= rallentando.
4G/	4r	4g/	4r	.	.
[2d^/	4r	[2dd^/	4r	.	.
.	4EE\	.	4g 4e 4B-X\	.	.
=114	=114	=114	=114	=114	=114
4d/]	2.AA\	4dd/]	2.g 2.e 2.A\	.	.
8c#X/L	.	8cc#X/L	.	.	.
8Bn/J	.	8bn/J	.	.	.
4c#;/	.	4cc#;/	.	.	.
*v	*v	*	*	*	*
*	*v	*v	*	*
!!LO:PB:g=original
=115||	=115||	=115||	=115||
!!!OMD: Tempo I°.
!!!OMD-mod: Tempo I
!!!key: d
*k[b-]	*k[b-]	*	*
*xywh-#7:356,466,3414,965	*xywh-#7:356,466,3414,965	*	*
8AA 8DD\	8d 8F</	.	.
8r	8r	.	.
2G#X 2F 2BB-\	(4.dd 4.d/	.	sf
.	8b-\	.	.
=116	=116	=116	=116
4A 4F 4AA'\	8.a/L)	.	.
.	16a/Jk	.	.
4AA 4DD'/	4f 4d/	.	.
4AA 4DD'/	4a 4f 4A/	.	.
=117	=117	=117	=117
8AA 8DD\	8d 8F</	.	.
8r	8r	.	.
.	(8qd/	.	.
2G#X 2F 2BB-\	(8eeL 8d'\)	.	sf
.	8dd'\	.	.
.	8cc'\	.	.
.	8b-'\J	.	.
=118	=118	=118	=118
4A 4F 4AA'\	8.a'>/L)	.	.
.	16a/Jk	.	.
4AA 4DD'/	4f 4d/	.	.
4AA 4DD'/	4a 4f 4A/	.	.
=119	=119	=119	=119
.	8qB-/	.	.
8C 8CC/	8cc 8g 8e/	.	.
!	!	!	!LO:MO:mod=!null:null
!	!	!	!LO:HP:a
8r	8r	.	<
2F 2C 2FF^>/	2a 2f 2c 2A^>/	.	.
=120	=120	=120	=120
.	8qc#X/	.	.
8A 8AA\	8ee 8a 8g\	.	.
8r	8r	.	[
(<2d 2A 2D^\	(2ff 2dd 2a 2f^\	.	.
=121	=121	=121	=121
4e-X 4B- 4G\	4ee-X 4b- 4g\	.	.
2c#X 2A\	2cc#X 2g 2en/	.	.
=122	=122	=122	=122
4d 4D\)	4dd 4f/)	.	.
4D\	4r	.	.
4r	4r	.	.
!!LO:LB:g=original
=123||	=123||	=123||	=123||
!!!OMD: Vivo.
*xywh-#7:299,1396,3521,695	*xywh-#7:299,1396,3521,695	*	*
4FF'/	8f 8A/	.	.
.	8r	.	.
4a 4f 4cn'\	(4.ff^\	.	.
4a 4f 4c#X'\	.	.	.
.	8ee\	.	.
=124	=124	=124	=124
4BB-'/	8dd\L)	.	.
.	16r	.	.
.	16dd\Jk	.	.
4g 4d'\	4b-\	.	.
4f 4d 4B-^\	4dd 4b- 4g^\	.	.
=125	=125	=125	=125
4CC'/	8eL 8B-/	.	.
.	16r	.	.
.	(<16g/Jk	.	.
(4c 4B-\	8ddL 8e/	.	.
.	8g/	.	.
4C/)	8dd 8e/	.	.
.	8g/J	.	.
=126	=126	=126	=126
4A: 4FF:\	8dd:L 8a: 8f:\)	.	.
.	16r	.	.
.	16dd\Jk	.	.
(4c\	4cc\	.	.
4C/)	4a 4f/	.	.
=127	=127	=127	=127
4FF/	8f 8A/	.	.
.	8r	.	.
4a 4f 4c\	(4.ff^\	.	.
4a 4f 4c#X\	.	.	.
.	8ee\	.	.
!!LO:LB:g=original
=128	=128	=128	=128
*xywh-#7:307,2057,3357,667	*xywh-#7:307,2057,3357,667	*	*
4BB-/	8gg:L 8ee:\)	.	.
.	16r	.	.
.	16ffJk 16dd\	.	.
4g 4d\	4ee 4cc\	.	.
4f 4G\	4dd 4b-\	.	.
=129	=129	=129	=129
4C/	8eL 8B-/	.	.
.	16r	.	.
.	(<16g/Jk	.	.
(4c 4B-\	8ddL 8e/	.	.
.	8g/	.	.
4C/)	8dd 8e/	.	.
.	8g/J	.	.
=130	=130	=130	=130
*^	*	*	*
4r	4A: 4FF:\	8dd:L 8a: 8f:\)	.	.
.	.	16r	.	.
.	.	16dd\Jk	.	.
2c/	4r	4cc\	.	.
.	4F\	4a 4d#X/	.	.
*v	*v	*	*	*
=131	=131	=131	=131
*	*^	*	*
8c#X 8E\	8a 8e/	8ryy	.	.
8r	8r	8ryy	.	.
2d 2E\	4.bn/	2g#X 2e\	.	sf
.	8cc#X/	.	.	.
*	*v	*v	*	*
=132	=132	=132	=132
4c#X 4A\	8aL 8e/	.	.
.	8cc#X/J	.	.
4c# 4A\	4ee 4a 4e/	.	.
4c# 4A\	4ee 4a 4e/	.	.
!!LO:LB:g=original
=133	=133	=133	=133
*	*^	*	*
*xywh-#7:321,2717,3421,674	*xywh-#7:321,2717,3421,674	*xywh-#7:321,2717,3421,674	*	*
8c#X 8E\	8a 8e/	8ryy	.	.
8r	8r	8ryy	.	.
!	!	!	!	!LO:DY:rj
2d 2E\	4.bn/	2g#X 2e\	.	sf
.	8cc#X/	.	.	.
*	*v	*v	*	*
=134	=134	=134	=134
4c#X 4A\	8aL 8e/	.	.
.	8f#X/J	.	.
4c# 4A\	4e/	.	.
4c# 4A\	4e/	.	.
*clefG2	*	*	*
=135	=135	=135	=135
*	*^	*	*
8cc#X 8e/	8aa 8ee\	8ryy	.	p
8r	8r	8ryy	.	.
2dd 2e/	4.bbn/	2gg#X 2ee\	.	.
.	8ccc#X/	.	.	.
*	*v	*v	*	*
=136	=136	=136	=136
!	!LO:TX:b:i:t=rallentando.:dur=11q:ext=ud:problem:text with extention lines:mod=	!	!
4cc#X 4a\	8.aaL 8.ee\	.	.
.	16ccc#X\Jk	.	.
4cc# 4a\	4eee 4aa 4ee\	.	.
4cc# 4a\	4eee 4aa 4ee\	.	.
=137	=137	=137	=137
8.A/L	2.r	.	.
16c#X/Jk	.	.	.
4e/	.	.	.
4e/	.	.	.
!!LO:LB:g=original
=138	=138	=138	=138
*xywh-#7:314,3370,3443,752	*xywh-#7:314,3370,3443,752	*	*
4cc#X 4a\	8.aaL 8.ff\	.	.
.	16ccc#X\Jk	.	.
4cc# 4a\	4fff 4aa 4ff\	.	.
4cc# 4a\	4fff 4aa 4ff\	.	.
=139	=139	=139	=139
8.A/L	4r	.	.
16c#X/Jk	.	.	.
4.f;/	4r;	.	.
.	8r	.	.
8r	(8eL/	.	.
*clefF4	*	*	*
=140	=140	=140	=140
!!!OMD: Lento.
8AA 8DD\	8d 8F<J/)	.	.
8r	8r	.	pp
(2G#X 2F 2BB-;\	(4.dd 4.d;\	.	.
.	8b-\	.	.
=141	=141	=141	=141
4A 4F 4AA'\)	8.a/L)	.	.
.	16a/Jk	.	.
4AA 4DD'/	4f 4d/	.	.
4AA 4DD'/	4a 4f 4A/	.	.
=142	=142	=142	=142
8AA 8DD\	8d 8F</	.	.
8r	8r	.	.
.	(8qd/	.	.
(2G#X 2F 2BB-;\	(8eeL 8d';\)	.	.
.	8dd'\	.	.
.	8cc'\	.	.
.	8b-'\J	.	.
!!LO:LB:g=original
=143	=143	=143	=143
*xywh-#7:299,4101,3648,1213	*xywh-#7:299,4101,3648,1213	*	*
4A 4F 4AA'\)	8.a'>/L)	.	.
.	16a/Jk	.	.
4AA 4DD'/	4f 4d/	.	.
4AA 4DD'/	4a 4f 4A/	.	.
=144	=144	=144	=144
.	8qB-/	.	.
!	!	!	!LO:MO:mod=!null:null
!	!	!	!LO:HP:a
8C 8CC/	8cc 8g 8e/	.	<
8r	8r	.	.
2F 2C 2FF^/	2a 2f 2c 2A^/	.	.
=145	=145	=145	=145
.	8qc#X/	.	.
8A 8AA\	8ee 8a 8g\	.	.
8r	8r	.	[
2d 2A 2D^\	2ff 2dd 2a 2f^\	.	.
=146	=146	=146	=146
!	!LO:MO:mod=!null:null	!	!
!	!LO:N:n=3:vis=12	!	!
!	!LO:MO:mod=!null:null	!	!
!	!LO:N:n=1:vis=12	!	!
!	!LO:TX:b:i:t=poco rit.:dur=3q:ext=ud:problem:text with extention lines:mod=	!	!
!!LO:TX:B:t=:mod=poco ritenuto.
!	!LO:TUP:a:num=6	!	!
2d 2B- 2G\	(12.eeL 12.dd 12.b- 12.e\	.	.
.	24ffL 24f\	.	.
.	24gg 24g\	.	.
.	24aaJJ 24a\	.	.
.	4bb- 4b-\)	.	.
(4G 4E 4AA\	(>4cc#X 4a 4c#X/	.	.
=147	=147	=147	=147
4F 4D\)	4dd 4d/)	.	.
4DD 4DDD/	4ddd 4aa 4ff 4dd\	.	fff
!LO:TX:b:B:t=Fine.	!	!	!
4r	4r	.	.
==	==	==	==
*-	*-	*-	*-
!!!system-decoration: {(*)}
!!!RDF**kern: > = above
!!!RDF**kern: < = below
!!!filter-modern: autostem -r | shed -k -e “s/([^a-gA-Gn#X-])[<>]/$1/g”  | shed -e "s/LO:DY:(a|b|rj)/LO:dy:$1/L" | modori -m
!!!ENC: Berenika Jozajtis
!!!END: 2022-05-06
!!!ENC: Andrzej Kubiczek
!!!END: 2022-05-16
!!!ENC-modern: Leszek Kubiak
!!!END-modern: 2022-07-19
!!!ENC-iiif: Jan Barakat
!!!END-iiif: 2022-08-30
!!!YEC: Copyright 2022 Narodowy Instytut Fryderyka Chopina (https://polishscores.org)
!!!YEM: License CC-BY-4.0 (https://creativecommons.org/licenses/by/4.0)
